invoice-send.svg

<svg fill="currentColor" viewBox="0 0 24 24"><path d="M3 22V3h18v11.26l-9-4.5V20l-3 2-3-2zm21-4-10 5v-4l4-1-4-1v-4z"/></svg>

<svg  viewBox="0 0 24 24" fill="currentColor"><path  d="M3 22V3H21V14.26L12 9.76V20L9 22L6 20L3 22M24 18L14 23V19L18 18L14 17V13L24 18Z"/></svg>
